X:4695
T:O Hurrah for the Bonnetts O Blue
O:england
M:6/8
L:1/8
S:Armitt MS
N:The bottom of the last line is missing from the photocopy and  the
N:duration of notes in bars marked with an asterix are not certai
K:D major
A|ded fga|ABA ABc|d2b gfe|e3zfe|ded fga|(AB)A A b2|agf ede|d3d3:||:d|cde
efe|(A3A2)d|cde ef^g|a3a2g|ffe dBc|d2ef2^a|bfe dec|B3B2c|ded faf|d3d2A|
d2b afe|""(e3e)e2|f2e def|gab a2a""|agf ed e2|(d3d3)||


